icons/editor/folders.svg

<svg width="32" height="32" viewBox="0 0 32 32" fill="none" xmlns="http://www.w3.org/2000/svg">
<path fill-rule="evenodd" clip-rule="evenodd" d="M9.99999 3C8.89542 3 7.99999 3.89543 7.99999 5V7.09095H9.99999V5H14.8178L18.3588 7.68469C18.7065 7.94828 19.1308 8.09095 19.5671 8.09095H28V20H26V22H28C29.1046 22 30 21.1046 30 20V8.09095C30 6.98638 29.1046 6.09095 28 6.09095L19.5671 6.09095L16.0261 3.40626C15.6784 3.14267 15.2541 3 14.8178 3H9.99999ZM4 9C2.89543 9 1.99999 9.89544 2 11L2.0001 26C2.00011 27.1046 2.89554 28 4.0001 28H22C23.1046 28 24 27.1046 24 26V14.091C24 12.9864 23.1046 12.091 22 12.091H13.5671L10.0261 9.40626C9.67841 9.14267 9.25408 9 8.81778 9H4ZM4 11H8.81778L12.3588 13.6847C12.7065 13.9483 13.1308 14.091 13.5671 14.091H22V26H4.0001L4 11Z" fill="black"/>
</svg>

<svg width="32" height="32" viewBox="0 0 32 32" xmlns="http://www.w3.org/2000/svg">
    <path fill-rule="evenodd" d="M10 3a2 2 0 00-2 2v2.091h2V5h4.818l3.54 2.685a2 2 0 001.21.406H28V20h-2v2h2a2 2 0 002-2V8.09a2 2 0 00-2-1.999h-8.433l-3.54-2.685A2 2 0 0014.816 3H10zM4 9a2 2 0 00-2 2v15a2 2 0 002 2h18a2 2 0 002-2V14.091a2 2 0 00-2-2h-8.433l-3.54-2.685A2 2 0 008.816 9H4zm0 2h4.818l3.54 2.685a2 2 0 001.21.406H22V26H4V11z"/>
</svg>
